!!!OTL: Zhuzongsiling daoguanting
!!!ARE: Asia, China,ÿAnhui Feixi
!! III, 519
!!!SCT: C2035
!!!YEM: Copyright 1995, estate of Helmut Schaffrath.
**kern
*ICvox
*Ivox
*M2/4
*k[f#]
*G:
{16e
16g
8d
8e
16g
16a
=1
16b
16a
16g
16e
8g
8e
=2
8.g
16a
16b
16dd
16dd
16b
=3
8b
4a
16g
16e
=4
8g
16a
16g
4e}
=5
{8dd
16b
16dd
8ee
8gg
=6
8ee
16dd
16ee
8dd
8b
=7
8dd
8ee
8ee
16dd
16b
=8
4.a
8b
=9
8dd
8a
16a
16g
8e
=10
4d
8d
8r}
==
!!!AGN: Xiaodiao, Yangge
!!!AMT: simple duple
!!!AIN: vox
!!!EED: Helmut Schaffrath
!!!EEV: 1.0
*-
